web/assets/img/functions/930-closed.svg

<svg width="512" height="512" viewBox="0 0 512 512" fill="none" xmlns="http://www.w3.org/2000/svg">
    <path fill-rule="evenodd" clip-rule="evenodd"
          d="M246 60C246 52.268 252.268 46 260 46H472C479.732 46 486 52.268 486 60V492C486 499.732 479.732 506 472 506H260C252.268 506 246 499.732 246 492V60ZM266 66V486H466V66H266Z"
          fill="#282828"/>
    <path fill-rule="evenodd" clip-rule="evenodd"
          d="M26 60C26 52.268 32.268 46 40 46H252C259.732 46 266 52.268 266 60V492C266 499.732 259.732 506 252 506H40C32.268 506 26 499.732 26 492V60ZM46 66V486H246V66H46Z"
          fill="#282828"/>
    <path fill-rule="evenodd" clip-rule="evenodd"
          d="M6 16C6 10.4772 10.4772 6 16 6H496C501.523 6 506 10.4772 506 16V56C506 61.5228 501.523 66 496 66H16C10.4772 66 6 61.5228 6 56V16ZM26 26V46H486V26H26Z"
          fill="#00D151"/>
    <path fill-rule="evenodd" clip-rule="evenodd"
          d="M110 286C115.523 286 120 290.477 120 296V496C120 501.523 115.523 506 110 506C104.477 506 100 501.523 100 496V296C100 290.477 104.477 286 110 286Z"
          fill="#282828"/>
    <path fill-rule="evenodd" clip-rule="evenodd"
          d="M182 286C187.523 286 192 290.477 192 296V496C192 501.523 187.523 506 182 506C176.477 506 172 501.523 172 496V296C172 290.477 176.477 286 182 286Z"
          fill="#282828"/>
    <path fill-rule="evenodd" clip-rule="evenodd"
          d="M330 286C335.523 286 340 290.477 340 296V496C340 501.523 335.523 506 330 506C324.477 506 320 501.523 320 496V296C320 290.477 324.477 286 330 286Z"
          fill="#282828"/>
    <path fill-rule="evenodd" clip-rule="evenodd"
          d="M402 286C407.523 286 412 290.477 412 296V496C412 501.523 407.523 506 402 506C396.477 506 392 501.523 392 496V296C392 290.477 396.477 286 402 286Z"
          fill="#282828"/>
</svg>

<?xml version="1.0" encoding="utf-8"?>
<!-- Generator: Adobe Illustrator 28.2.0, SVG Export Plug-In . SVG Version: 6.00 Build 0)  -->
<svg version="1.1" id="Calque_1" xmlns="http://www.w3.org/2000/svg" xmlns:xlink="http://www.w3.org/1999/xlink" x="0px" y="0px"
	 viewBox="0 0 512 512" style="enable-background:new 0 0 512 512;" xml:space="preserve">
<style type="text/css">
	.st0{fill-rule:evenodd;clip-rule:evenodd;fill:#282828;}
	.st1{fill-rule:evenodd;clip-rule:evenodd;fill:#33B0DF;}
</style>
<path class="st0" d="M246,60c0-7.7,6.3-14,14-14h212c7.7,0,14,6.3,14,14v432c0,7.7-6.3,14-14,14H260c-7.7,0-14-6.3-14-14V60z
	 M266,66v420h200V66H266z"/>
<path class="st0" d="M26,60c0-7.7,6.3-14,14-14h212c7.7,0,14,6.3,14,14v432c0,7.7-6.3,14-14,14H40c-7.7,0-14-6.3-14-14V60z M46,66
	v420h200V66H46z"/>
<path class="st1" d="M6,16c0-5.5,4.5-10,10-10h480c5.5,0,10,4.5,10,10v40c0,5.5-4.5,10-10,10H16c-5.5,0-10-4.5-10-10V16z M26,26v20
	h460V26H26z"/>
<path class="st0" d="M110,286c5.5,0,10,4.5,10,10v200c0,5.5-4.5,10-10,10s-10-4.5-10-10V296C100,290.5,104.5,286,110,286z"/>
<path class="st0" d="M182,286c5.5,0,10,4.5,10,10v200c0,5.5-4.5,10-10,10s-10-4.5-10-10V296C172,290.5,176.5,286,182,286z"/>
<path class="st0" d="M330,286c5.5,0,10,4.5,10,10v200c0,5.5-4.5,10-10,10s-10-4.5-10-10V296C320,290.5,324.5,286,330,286z"/>
<path class="st0" d="M402,286c5.5,0,10,4.5,10,10v200c0,5.5-4.5,10-10,10s-10-4.5-10-10V296C392,290.5,396.5,286,402,286z"/>
</svg>
